X:1
T:Title
%%score { ( 1 4 5 7 ) | ( 2 3 6 ) }
L:1/8
Q:1/4=66
M:4/4
K:Bb
V:1 treble nm="Piano, Piano" snm="Pno."
V:4 treble 
V:5 treble 
V:7 treble 
V:2 treble 
V:3 treble 
V:6 treble 
V:1
 a'8 | c'8 | A,8 | C4 F4 | A4 c4 |[M:6/4][Q:1/4=100] [C=E]12 | [FA]6 G6 | D6 C4 [DF]2 | %8
w: C418||||||||
 [=EG]6 A2 c2 A2 | [B,F]6- [B,F]4 d2 | [Aa]4 z f [Gg]6 | [Dd]6 [Cc]4 [df]2 | [=eg]6 [Aa]6 | %13
w: |||||
 [FBd]12 | [Bfa]4 g2 [Ad]4 c2 | [Bfa]4 g2 [Acd]4 c2 | [Bfa]4 c'2 [ad']4 c'2 | [fa]4 f2 =e6 | %18
w: |||||
 [B,EG]6 F4 G2 | D2 E2 F2 C4 B,2 | z6 b4 g2 | [df]2 e2 [Bd]2 c4 B2 | G12- | %23
w: |||||
 G6 z6[Q:1/4=99][Q:1/4=97][Q:1/4=96][Q:1/4=94][Q:1/4=93][Q:1/4=91][Q:1/4=90][Q:1/4=88][Q:1/4=87][Q:1/4=85][Q:1/4=84][Q:1/4=82] | %24
w: |
 z6 z4 [G,G]2[Q:1/4=81][Q:1/4=79][Q:1/4=78][Q:1/4=76][Q:1/4=100] | [fd']4 c'2 g4 f2 | %26
w: ||
 [fd']4 c'2 g4 f2 | [fc']6 [gd']6 | [eb]12 | [fd']4 [fc']2 [dg]4 f2 | [fd']4 [gc']2 [eg]4 f2 | %31
w: |||||
 [fc']4 [gb]2 [gd']4 [af']2 | [fb]6- [fb]4 [eg]2 | [dd']4 [cc']2 [Gg]4 [Ff]2 | %34
w: |||
 [dd']4 [cc']2 [Gg]4 [Ff]2 | [dd']6 [cc']4 [ff']2 | [Beb]6- [Beb]4 [Gg]2 | %37
w: |||
 [dd']4 [cc']2 [Gg]4 [Ff]2 | [dd']4 [cc']2 [Gg]4 [Ff]2 | [dd']6 [cc']4 [ff']2 | %40
w: |||
 [Beb]6 z/4 g3/4-g- g4- | g12 | [Fd]4 [Cc]2 .[B,G]6 | [fd']4 [cc']2 [Gg]4 f2 | %44
w: ||||
 [f'd'']4 [c'c'']2 [gg']4 f'2 | z/ b3/2- b4- b6 |[M:4/4][K:bass] B,,2 z B,,- B,, B,,2 F,, | %47
w: |||
 B,,>B,, B,,B,, z B,, z F,, |[K:treble] d6[K:bass][K:treble] c2 | f8[K:bass] | %50
w: |||
[K:treble] B6[K:bass] G2 |[K:treble] d4[K:bass][K:treble] c4[K:bass] | %52
w: ||
[K:treble] d6[K:bass][K:treble] g2 | f8[K:bass] |[K:treble] B6[K:bass][K:treble] e2 | %55
w: |||
 d4[K:bass][K:treble] c4[K:bass] |[K:treble] B8 | A8[K:bass] |[K:treble] b4 g4 | c'4 g4 | d'8- | %61
w: ||||||
 d'4 z4 | a8 | ^f8 |[Q:1/4=122] f8[K:bass] | B,,B,,B,,B,, B,,B,,B,,B,, | %66
w: |||||
 B,,B,,B,,B,, B,,B,,B,,B,, | B,,B,,B,,B,, B,,B,,B,,B,, | B,,B,,B,,B,, B,,B,,B,,B,, | %69
w: |||
 B,,B,,B,,B,, B,,B,,B,,B,, |[K:treble] [Bd]6[K:bass][K:treble] z2 | [Bf]8[K:bass] | %72
w: |||
[K:treble] [EB]6[K:bass][K:treble] z2 | [Bd]4[K:bass][K:treble] [Fc]4 | %74
w: ||
 [Bd]6[K:bass][K:treble] z2 | [Bf]8[K:bass] |[K:treble] [EB]6[K:bass][K:treble] z2 | %77
w: |||
 [DBd]4[K:bass][K:treble] [CAc]4 | [DGB]8 | [D^FA]8 |[M:3/4] B6 | G6 | [DGd]6- | [DGd]6 | G6- | %85
w: ||||||||
 G6 | b4 d'2- | d'2 b4 | g4 f2- | f6 | c6- | c6 |[M:4/4][Q:1/4=135] [B,B]8[K:bass] | %93
w: ||||||||
 z B,,B,,B,, B,,B,,B,,B,, |[K:treble] [Fd][Fd][Fd][Fd] [Fd][Fd][Fd][Fd] | %95
w: ||
 [Fd][Fd][Fd][Fd] [Fc][Fc][FB][FB] | [FA][FA][FA][FB] [FB][FB][FB][FB] | %97
w: ||
 [FB][FB][FB][FB] [FG][FG][FG][FG] | [Fd][Fd][Fd][Fd] [Fd][Fd][Fd][Fd] | %99
w: ||
 [Fd][Fd][Fd][Fd] [Fc][Fc][FB][FB] | [FA][FA][FA][FB] [FB][FB][FB][FB] | %101
w: ||
 [FB][FB][FB][FB] [FG][FG][FG][FG] | [Fd]GF[Fd] GF[Fd]G | F[Fd]GF [Fc]F[FB]F | %104
w: |||
 [FA][FA][FA][FB] [FB][FB][FB][FB] | [FB][FB][FB][FB] [FG][FG][FG][FG] | [Fd]GF[Fd] GF[Fd]G | %107
w: |||
 F[Fd]GF [Ff]F[Fd]F | [Fc][Fc][Fc][Ff] [Ff][Ff][Ff][Ff] | [Ff][Ff][Ff][Ff] [Ff]F/G/ df | %110
w: |||
 dGFd GFdG | FdGF dGdf | dGFd GFdG[Q:1/4=133][Q:1/4=131][Q:1/4=129][Q:1/4=127] | %113
w: |||
 FdGF dGF[Q:1/4=119]d[Q:1/4=125][Q:1/4=123][Q:1/4=121] | %114
w: |
 GFdG FdGF[Q:1/4=117][Q:1/4=115][Q:1/4=113][Q:1/4=111] | %115
w: |
 dG F2 [dd']G[Q:1/4=103] F2[Q:1/4=109][Q:1/4=107][Q:1/4=105] |[Q:1/4=100] d6 c2 | f8 | %118
w: |||
 (3:2:2z B2- B4 G2 | d4 c4 | z4 d4 | B4 G4 | F8 | C8 | B,8 | A,8 |[Q:1/4=135] d8 | c6 G2 | A8 | %129
w: |||||||||||
 G8 | c8 | d6 A2 | F8 | z ggg gggg | [Gd][Gd][Gd][Gd] [Gd][Gd][Gd][Gd] | GG[GB][GB] [GB][GB][GB]G | %136
w: |||||||
 [FB][FB][FB][FB] [FB][FB][FB][FB] | FF[Fc][Fc] [Fc][Fc][Fc]G | [GB][GB][GB][GB] [GB][GB][GB][GB] | %139
w: |||
 [GB]3[K:bass][K:treble] [Bd]- [Bd]2 z2 | A4[K:bass][K:treble] z4 | %141
w: ||
 A[AB][AB][AB] [AB][AB][AB][AB] | [Gd][Gd][Gf][Gf] [Gc][Gc][Gc][Gd] | GG[GB][GB] [GB][GB][GB][Gc] | %144
w: |||
 [Fd][Fd][Fg][Fg] [Fc][Fc][Fc][Fd] | GG[FB][FB] [FB][FB][FB][Fc] | d6[K:bass] z2[K:treble] | %147
w: |||
 [gd'][gd'][gd'][d'g'] [d'g'][d'g'][d'b'][d'b'] | %148
w: |
 [c'a'][c'a'][c'a'][c'a'] [c'a'][c'a'][c'a'][c'a'] | %149
w: |
 [c'g'][c'g'][c'g'][c'g'] [c'f'][c'f'][c'f'][c'f'] | [dgd']8 | %151
w: ||
 G2 B4 z F[Q:1/4=133][Q:1/4=131][Q:1/4=129][Q:1/4=127] | %152
w: |
 D8[Q:1/4=125][Q:1/4=123][Q:1/4=121][Q:1/4=119] | %153
w: |
[K:bass] G,2 B,6[Q:1/4=117][Q:1/4=115][Q:1/4=113][Q:1/4=111] | %154
w: |
 G,,8[Q:1/4=109][Q:1/4=107][Q:1/4=105][Q:1/4=103] |[Q:1/4=62] G,4 A,4 | B,4[K:treble] D4 | C4 A,4 | %158
w: ||||
 =E8 | B,4 A,4 | d4 f4 | [ca]4 f4 | [G=e]8 | [Bd]8 | [Af]6 z =e/f/ | [cg]8 | %166
w: ||||||||
 a'2 g'2 (3f'2 d'2 c'2 | [G,DG]4 c2 d2 | [FA]6 FG | =E6[K:bass] z2 |[K:treble] [G,=EG]8 | %171
w: |||||
 z2 f2 d2 z2[Q:1/4=61][Q:1/4=60][Q:1/4=59][Q:1/4=58] | [FA]6 F[Q:1/4=55]G[Q:1/4=57][Q:1/4=56] | %173
w: ||
 =E6[K:bass] z2[Q:1/4=54][Q:1/4=53][Q:1/4=52][Q:1/4=51] | %174
w: |
[K:treble] z/4 z/8[Q:1/4=50] G/8-G3/2- G6[Q:1/4=49][Q:1/4=48][Q:1/4=47] | z8 |] %176
w: ||
V:2
 f'8 | a8 |[K:bass] [F,,F,]8 | =E,4 z4 | F4 z4 |[M:6/4] [C,=E,]6 C,2 A,,2 G,,2 | %6
 B,,2 D,2 G,2 A,2 G,2 D,2 | B,,2 D,2 G,2 A,2 G,2 D,2 | A,,2 F,2 G,2 A,2 C2 A,2 | %9
 B,,2 D,2 F,2 A,2 F,2 D2 | z4 G,2[K:treble] z6[K:bass] | B,,2 D,2 G,2 A,2 G,2 D,2 | %12
 A,,2 F,2 G,2 A,2 C2 A,2 | [B,,F,B,]12 | G,,2 D,2 G,2 A,2 G,2 D,2 | G,,2 D,2 G,2 A,2 G,2 D,2 | %16
 B,,2 D,2 G,2 A,2 G,2 F,2 | C,2 G,2 A,2 [CG]6 | [E,,E,]2 B,,2 E,2 B,2 E,2 B,,2 | %19
 [B,,,B,,]2 F,,2 B,,2 A,,2 C,2 B,,2 | [E,,E,]2 B,,2 E,2 B,2 E,2 B,,2 | %21
 [B,,,B,,]2 F,,2 B,,2 A,,2 C,2 B,,2 | E,,2 G,,2 B,,2 E,6 | z2 D,,2 A,,2 D,2 F,2 A,2 | %24
[K:treble] D2 F2 D2- D2 B,2[K:bass] F,2 | B,,2 F,2 B,2 C2 B,2 F,2 | B,,2 F,2 B,2 C2 B,2 F,2 | %27
 A,,2 C,2 F,2 G,2 F,2 C,2 | E,,2 B,,2 E,2 B,2 E,2 D,2 | B,,2 F,2 B,2 C2 B,2 F,2 | %30
 B,,2 F,2 B,2 C2 B,2 F,2 | A,,2 C,2 F,2 G,2 F,2 C,2 | E,,2 B,,2 E,2 B,2 E,2 D,2 | %33
 C,2 E,2 G,2 C2 G,2 E,2 | A,,2 D,2 F,2 A,2 F,2 D,2 | B,,2 D,2 F,2 B,2 F,2 D,2 | %36
 [E,,,E,,]2 B,,2 E,2 B,2 C2 D2 | B,,2 F,2 B,2 C2 B,2 F,2 | A,,2 C,2 F,2 A,2 F,2 C,2 | %39
 =E,,2 G,,2 C,2 =E,2 G,2 E,,2 | E,,,2 B,,2 E,2[K:treble] z/ c'3/2- c'4- | c'12 | %42
[K:bass] B,,4 F,2 G,4 F2 | z6 B,6 | B,,4 F,2 z4[K:treble] f2 |[K:bass] z/ B,3/2- B,4- B,6 | %46
[M:4/4] B,,,8 | B,,,8 | B,,2 z2 z4 | B,,2 z2 z4 | E,,2 z2 z4 | B,,2 z2 z4 | B,,2 z2 z4 | %53
 B,,2 z2 z4 | E,,2 z2 z4 | B,,2 z2 z4 | [B,,D,G,]>[B,,D,] [B,,D,][B,,D,] z [B,,D,] z [B,,D,] | %57
 [A,,D,^F,]>[A,,D,] [A,,D,][A,,D,] z [A,,D,] z [A,,D,] | %58
 [D,G,B,]>[D,G,] [D,G,][D,G,] z [D,G,] z [D,G,] | [C,=E,G,]>[C,E,] [C,E,][C,E,] z [C,E,] z [C,E,] | %60
 [E,G,D]8- | [E,G,D]4 [E,G,C]4 | [D,A,_D]8 | [B,,^F,]8 | [F,,D,F,]8 | z8 | %66
 .B,,,2 z B,,, z2 .B,,,2 | z B,,, z2 .B,,,2 .B,,,2 | .B,,,2 z B,,, z2 .B,,,2 | %69
 z B,,, z2 .B,,,2 .B,,,2 | [B,,,B,,]B,,B,,B,,, B,,B,,[B,,,B,,]B,, | B,,B,,,B,,B,, B,,,B,,B,,,B,, | %72
 [E,,,E,,]E,,E,,E,,, E,,E,,[E,,,E,,]E,, | B,,B,,,B,,B,, [B,,,B,,]B,,B,,,B,, | %74
 [B,,,B,,]B,,B,,B,,, B,,B,,[B,,,B,,]B,, | B,,B,,,B,,B,, B,,,B,,B,,,B,, | %76
 [E,,,E,,]E,,E,,E,,, E,,E,,[E,,,E,,]E,, | B,,B,,,B,,B,, [B,,,B,,]B,,B,,,B,, | [G,,D,G,]8 | %79
 [D,,A,,D,]8 |[M:3/4] [D,B,]6 | [G,,D,G,]6 | z6 | z6 | [G,D]6- | [G,D]6 |[K:treble] B4 d2- | %87
 d2 B4 | G4 F2- | F6 | C6- | C6 |[M:4/4][K:bass] [B,,,B,,]B,,B,,B,,, B,,B,,B,,,B,, | %93
 B,,B,,, z2 .B,,,2 .B,,,2 | [E,,E,]E,E,[E,,E,] E,E,[E,,E,]E, | E,[E,,E,]E,E, [E,,E,]E,[E,,E,]E, | %96
 [B,,,B,,]B,,B,,[B,,,B,,] B,,B,,[B,,,B,,]B,, | [B,,,B,,]B,,B,,[B,,,B,,] B,,B,,[B,,,B,,]B,, | %98
 [E,,E,]E,E,[E,,E,] E,E,[E,,E,]E, | E,[E,,E,]E,E, [E,,E,]E,[E,,E,]E, | %100
 [B,,,B,,]B,,B,,[B,,,B,,] B,,B,,[B,,,B,,]B,, | [B,,,B,,]B,,B,,[B,,,B,,] B,,B,,[B,,,B,,]B,, | %102
 [E,,B,,E,][B,,E,][B,,E,][E,,B,,E,] [B,,E,][B,,E,][E,,B,,E,][B,,E,] | %103
 [B,,E,][E,,B,,E,][B,,E,][B,,E,] [E,,B,,E,][B,,E,][E,,B,,E,][B,,E,] | %104
 [B,,,B,,]B,,B,,[B,,,B,,] B,,B,,[B,,,B,,]B,, | [B,,,B,,]B,,B,,[B,,,B,,] B,,B,,[B,,,B,,]B,, | %106
 [C,,G,,C,][G,,C,][G,,C,][C,,G,,C,] [G,,C,][G,,C,][C,,G,,C,][G,,C,] | %107
 [G,,C,][C,,G,,C,][G,,C,][G,,C,] [C,,G,,C,][G,,C,][C,,G,,C,][G,,C,] | %108
 [B,,,F,,B,,][F,,B,,][F,,B,,][B,,,F,,B,,] [F,,B,,][F,,B,,][B,,,F,,B,,][F,,B,,] | %109
 [F,,B,,][B,,,F,,B,,][F,,B,,][F,,B,,] [B,,,F,,B,,][F,,B,,][B,,,F,,B,,][F,,B,,] | %110
 B,,3 B,,- B,,2 B,,2- | B,, B,,3 B,,4 | B,,3 B,,- B,,2 B,,2- | B,, B,,3 B,,3 B,,- | %114
 B,,2 [B,,E,]2- [B,,E,] [B,,E,]3 | [B,,E,]4 [B,,E,]4 |[K:treble] F6 z2 | [EB]8 | z/ F3/2- F4 z2 | %119
 [B,G]4[K:bass] A,4 | C,3 D,- D,2 z2 | [G,G]4 F,4 | [_D,F,_A,]8 | [E,G,]8 | z8 | [A,,D,^F,]8 | %126
[K:treble] [B,DA]8 | C6 z2 | [A,D]8 | [G,B,]8 | [EGB]8 | [EG]6 z2 |[K:bass] [D,A,]8 | %133
 z4[K:treble] BBBB |[K:bass] [C,,C,][C,,C,][C,,C,][C,,C,] [C,,C,][C,,C,][C,,C,][C,,C,] | %135
 [C,,C,][C,,C,][C,,C,][C,,C,] [C,,C,][C,,C,][C,,C,][C,,C,] | %136
 [D,,D,][D,,D,][D,,D,][D,,D,] [D,,D,][D,,D,][D,,D,][D,,D,] | %137
 [D,,D,][D,,D,][D,,D,][D,,D,] [D,,D,][D,,D,][D,,D,][D,,D,] | %138
 [E,,E,][E,,E,][E,,E,][E,,E,] [E,,E,][E,,E,][E,,E,][E,,E,] | %139
 [E,,E,]E,,E,,[E,,E,] E,,E,,[E,,E,][E,,E,] | [F,,F,]F,,F,,F,, [F,,F,][F,,F,][F,,F,][F,,F,] | %141
 [F,,F,][F,,F,][F,,F,][F,,F,] [F,,F,][F,,F,][F,,F,][F,,F,] | %142
 [C,,C,][C,,C,][C,,C,][C,,C,] [C,,C,][C,,C,][C,,C,][C,,C,] | %143
 [C,,C,][C,,C,][C,,C,][C,,C,] [C,,C,][C,,C,][C,,C,][C,,C,] | %144
 [D,,D,][D,,D,][D,,D,][D,,D,] [D,,D,][D,,D,][D,,D,][D,,D,] | %145
 [D,,D,][D,,D,][D,,D,][D,,D,] [D,,D,][D,,D,][D,,D,][D,,D,] | [E,,E,]E,,E,,E,, E,,E,,E,,[E,,E,] | %147
 [E,,E,][E,,E,][E,,E,][E,,E,] [E,,E,][E,,E,][E,,E,][E,,E,] | %148
 [F,,F,][F,,F,][F,,F,][F,,F,] [F,,F,][F,,F,][F,,F,][F,,F,] | %149
 [F,,F,][F,,F,][F,,F,][F,,F,] [F,,F,][F,,F,][F,,F,][F,,F,] | [G,,,G,,]8 | z8 | G,8 | z8 | z8 | %155
 G,,4 z4 | G,4 z4 | F,4 z4 | G,8 | G,4 z4 |[K:treble] [B,B]4 D4 |[K:bass] [F,C]4 A,4 | [C,G,]8 | %163
 [G,,B,]4 A,,4 | B,,4 D,4 | [C,G,]8 |[K:treble] f'2 d'2 (3c'2 b2 a2 |[K:bass] z4 A,,4 | B,,4 D,4 | %169
 C6[K:treble] Ac |[K:bass] G,,8 | G,,4 z2[K:treble] c2 |[K:bass] B,,4 D,4 | C6[K:treble] cA | %174
[K:bass] z/8 C,3/8-C,3/2- C,6 | z8 |] %176
V:3
 x8 | x8 |[K:bass] x8 | =E,,8 | F,8 |[M:6/4] x12 | x12 | x12 | x12 | x12 | %10
 B,,2 .D,3[K:treble] F A,2[K:bass] G,2 D,2 | x12 | x12 | x12 | x12 | x12 | x12 | x12 | x12 | x12 | %20
 x12 | x12 | x12 | x12 |[K:treble] x10[K:bass] x2 | x12 | x12 | x12 | x12 | x12 | x12 | x12 | x12 | %33
 x12 | x12 | x12 | x12 | x12 | x12 | x12 | z6[K:treble] [F,,F,]6- | [F,,F,]12 |[K:bass] x12 | %43
 B,,4 F,2 z4 F2 | z6 B,6[K:treble] |[K:bass] z/4 F,3/4-F,- F,4- F,6 |[M:4/4] x8 | x8 | B,,,8 | %49
 B,,,8 | E,,,8 | B,,,8 | B,,,8 | B,,,8 | E,,,8 | B,,,8 | x8 | x8 | x8 | x8 | x8 | x8 | x8 | x8 | %64
 .B,,2 z2 z4 | x8 | x8 | x8 | x8 | x8 | x8 | x8 | x8 | x8 | x8 | x8 | x8 | x8 | x8 | x8 | %80
[M:3/4] x6 | x6 | [C,,G,,C,]6- | [C,,G,,C,]6- | [C,,G,,C,]6- | [C,,G,,C,]6 |[K:treble] x6 | x6 | %88
 x6 | x6 | x6 | x6 |[M:4/4][K:bass] x8 | x8 | x8 | x8 | x8 | x8 | x8 | x8 | x8 | x8 | x8 | x8 | %104
 x8 | x8 | x8 | x8 | x8 | x8 | x8 | x8 | x8 | x8 | x8 | x8 |[K:treble] B,8 | x8 | %118
 z/4 E3/4- E3- E2 z2 | x4[K:bass] x4 | x8 | x8 | x8 | x8 | x8 | x8 |[K:treble] x8 | G,8 | x8 | x8 | %130
 x8 | B,8 |[K:bass] x8 | G,8[K:treble] |[K:bass] x8 | x8 | x8 | x8 | x8 | x8 | x8 | x8 | x8 | x8 | %144
 x8 | x8 | x8 | x8 | x8 | x8 | x8 | x8 | x8 | x8 | x8 | x8 | x8 | x8 | x8 | x8 |[K:treble] x8 | %161
[K:bass] x8 | x8 | x8 | x8 | x8 |[K:treble] x8 |[K:bass] G,,8 | x8 | [C,G,]4 z4[K:treble] | %170
[K:bass] x8 | z4 A,,4[K:treble] |[K:bass] x8 | [C,G,]4 z4[K:treble] |[K:bass] G,,8 | x8 |] %176
V:4
 x8 | x8 | x8 | x8 | x8 |[M:6/4] x12 | x12 | x12 | x12 | x12 | x12 | x12 | x12 | x12 | x12 | x12 | %16
 x12 | x12 | x12 | x12 | [Beg]12 | x12 | x12 | x12 | x12 | x12 | x12 | x12 | x12 | x12 | x12 | %31
 x12 | x12 | x12 | x12 | x12 | x12 | x12 | x12 | x12 | z6 c6- | c12 | x12 | x12 | x12 | %45
 z/4 f3/4-f- f4- f6 |[M:4/4][K:bass] x8 | x8 | %48
[K:treble] z z/[K:bass] B,,/ B,,B,, z B,,[K:treble] z F,, | z z/[K:bass] B,,/ B,,B,, z B,, z F,, | %50
[K:treble] z z/[K:bass] E,,/ E,,E,, z E,, z F,, | %51
[K:treble] z z/[K:bass] B,,/ B,,B,,[K:treble] z[K:bass] B,, z F,, | %52
[K:treble] z z/[K:bass] B,,/ B,,B,, z B,,[K:treble] z F,, | z z/[K:bass] B,,/ B,,B,, z B,, z F,, | %54
[K:treble] z z/[K:bass] E,,/ E,,E,, z E,,[K:treble] z F,, | %55
 z z/[K:bass] B,,/ B,,B,,[K:treble] z[K:bass] B,, z F,, |[K:treble] z z/ G,/ G,G, z G, z G, | %57
 z z/[K:bass] ^F,/ F,F, z F, z F, |[K:treble] z z/ B,/ B,B, z B, z B, | z z/ G,/ G,G, z G, z G, | %60
 x8 | z2 z z/ (3:2:2z/ _d'/4 c'2 b2 | x8 | x8 | z[K:bass] B,,B,,B,, B,,B,,B,,B,, | x8 | x8 | x8 | %68
 x8 | x8 |[K:treble] z2 z[K:bass] B,, z2[K:treble] [Fc]2 | z[K:bass] B,, z2 .B,,2 .B,,2 | %72
[K:treble] z2 z[K:bass] E,, z2[K:treble] [EG]2 | z[K:bass] B,, z2[K:treble] z2 .B,,2 | %74
 z2 z[K:bass] B,, z2[K:treble] [dg]2 | z[K:bass] B,, z2 .B,,2 .B,,2 | %76
[K:treble] z2 z[K:bass] E,, z2[K:treble] [Be]2 | z[K:bass] B,, z2[K:treble] z2 .B,,2 | x8 | x8 | %80
[M:3/4] x6 | x6 | x6 | x6 | x6 | x6 | x6 | x6 | x6 | x6 | x6 | x6 | %92
[M:4/4] z2 z[K:bass] B,, z2 .B,,2 | x8 |[K:treble] x8 | x8 | x8 | x8 | x8 | x8 | x8 | x8 | x8 | %103
 x8 | x8 | x8 | x8 | x8 | x8 | x8 | x8 | x8 | x8 | x8 | x8 | x8 | x8 | x8 | B,6 z2 | x8 | %120
 [GB]4 z2 E,2 | x8 | x8 | x8 | x8 | x8 | x8 | x8 | x8 | x8 | x8 | x8 | x8 | B4 z4 | x8 | x8 | x8 | %137
 x8 | x8 | z[K:bass] E, .E,2[K:treble] E,E, [Bf]2 | z[K:bass] F,F,F,[K:treble] AAAA | x8 | x8 | %143
 x8 | x8 | x8 | z[K:bass] E,E,E, E,E,E,[K:treble]c' | x8 | x8 | x8 | x8 | x8 | x8 |[K:bass] x8 | %154
 x8 | x8 | x4[K:treble] x4 | x8 | x8 | x8 | x8 | x8 | x8 | x8 | x8 | x8 | x8 | x8 | x8 | %169
 z4[K:bass] A,,4 |[K:treble] x8 | B,4 z4 | x8 | z4[K:bass] A,,4 |[K:treble] z/4 =E3/4- E3- E4 | %175
 x8 |] %176
V:5
 x8 | x8 | x8 | x8 | x8 |[M:6/4] x12 | x12 | x12 | x12 | x12 | x12 | x12 | x12 | x12 | x12 | x12 | %16
 x12 | x12 | x12 | x12 | x12 | x12 | x12 | x12 | x12 | x12 | x12 | x12 | x12 | x12 | x12 | x12 | %32
 x12 | x12 | x12 | x12 | x12 | x12 | x12 | x12 | x12 | x12 | x12 | x12 | x12 | B12 | %46
[M:4/4][K:bass] x8 | x8 |[K:treble] x3/2[K:bass] x9/2[K:treble] x2 | x3/2[K:bass] x13/2 | %50
[K:treble] x3/2[K:bass] x13/2 |[K:treble] x3/2[K:bass] x5/2[K:treble] x[K:bass] x3 | %52
[K:treble] x3/2[K:bass] x9/2[K:treble] x2 | x3/2[K:bass] x13/2 | %54
[K:treble] x3/2[K:bass] x9/2[K:treble] x2 | x3/2[K:bass] x5/2[K:treble] x[K:bass] x3 | %56
[K:treble] x8 | x3/2[K:bass] x13/2 |[K:treble] x8 | x8 | x8 | x8 | x8 | x8 | x[K:bass] x7 | x8 | %66
 x8 | x8 | x8 | x8 |[K:treble] x3[K:bass] x3[K:treble] x2 | x[K:bass] x7 | %72
[K:treble] x3[K:bass] x3[K:treble] x2 | x[K:bass] x3[K:treble] x4 | x3[K:bass] x3[K:treble] x2 | %75
 x[K:bass] x7 |[K:treble] x3[K:bass] x3[K:treble] x2 | x[K:bass] x3[K:treble] x4 | x8 | x8 | %80
[M:3/4] x6 | x6 | x6 | x6 | x6 | x6 | x6 | x6 | x6 | x6 | x6 | x6 |[M:4/4] x3[K:bass] x5 | x8 | %94
[K:treble] x8 | x8 | x8 | x8 | x8 | x8 | x8 | x8 | x8 | x8 | x8 | x8 | x8 | x8 | x8 | x8 | x8 | %111
 x8 | x8 | x8 | x8 | x8 | x8 | x8 | x8 | x8 | x8 | x8 | x8 | x8 | x8 | x8 | x8 | x8 | x8 | x8 | %130
 x8 | x8 | x8 | x8 | x8 | x8 | x8 | x8 | x8 | x[K:bass] x2[K:treble] x5 | %140
 x[K:bass] x3[K:treble] x4 | x8 | x8 | x8 | x8 | x8 | x[K:bass] x6[K:treble] x | x8 | x8 | x8 | %150
 x8 | x8 | x8 |[K:bass] x8 | x8 | x8 | x4[K:treble] x4 | x8 | x8 | x8 | x8 | x8 | x8 | x8 | x8 | %165
 x8 | x8 | x8 | x8 | x4[K:bass] x4 |[K:treble] x8 | x8 | x8 | x4[K:bass] x4 | %174
[K:treble] z/8 C3/8-C3/2- C6 | x8 |] %176
V:6
 x8 | x8 |[K:bass] x8 | x8 | x8 |[M:6/4] x12 | x12 | x12 | x12 | x12 | x5[K:treble] x3[K:bass] x4 | %11
 x12 | x12 | x12 | x12 | x12 | x12 | x12 | x12 | x12 | x12 | x12 | x12 | x12 | %24
[K:treble] x10[K:bass] x2 | x12 | x12 | x12 | x12 | x12 | x12 | x12 | x12 | x12 | x12 | x12 | x12 | %37
 x12 | x12 | x12 | x6[K:treble] x6 | x12 |[K:bass] x12 | x12 | x10[K:treble] x2 |[K:bass] B,,12 | %46
[M:4/4] x8 | x8 | x8 | x8 | x8 | x8 | x8 | x8 | x8 | x8 | x8 | x8 | x8 | x8 | x8 | x8 | x8 | x8 | %64
 x8 | x8 | x8 | x8 | x8 | x8 | x8 | x8 | x8 | x8 | x8 | x8 | x8 | x8 | x8 | x8 |[M:3/4] x6 | x6 | %82
 x6 | x6 | x6 | x6 |[K:treble] x6 | x6 | x6 | x6 | x6 | x6 |[M:4/4][K:bass] x8 | x8 | x8 | x8 | %96
 x8 | x8 | x8 | x8 | x8 | x8 | x8 | x8 | x8 | x8 | x8 | x8 | x8 | x8 | x8 | x8 | x8 | x8 | x8 | %115
 x8 |[K:treble] x8 | x8 | E,8 | x4[K:bass] x4 | x8 | x8 | x8 | x8 | x8 | x8 |[K:treble] x8 | x8 | %128
 x8 | x8 | x8 | x8 |[K:bass] x8 | x4[K:treble] x4 |[K:bass] x8 | x8 | x8 | x8 | x8 | x8 | x8 | x8 | %142
 x8 | x8 | x8 | x8 | x8 | x8 | x8 | x8 | x8 | x8 | x8 | x8 | x8 | x8 | x8 | x8 | x8 | x8 | %160
[K:treble] x8 |[K:bass] x8 | x8 | x8 | x8 | x8 |[K:treble] x8 |[K:bass] x8 | x8 | x6[K:treble] x2 | %170
[K:bass] x8 | x6[K:treble] x2 |[K:bass] x8 | x6[K:treble] x2 |[K:bass] x8 | x8 |] %176
V:7
 x8 | x8 | x8 | x8 | x8 |[M:6/4] x12 | x12 | x12 | x12 | x12 | x12 | x12 | x12 | x12 | x12 | x12 | %16
 x12 | x12 | x12 | x12 | x12 | x12 | x12 | x12 | x12 | x12 | x12 | x12 | x12 | x12 | x12 | x12 | %32
 x12 | x12 | x12 | x12 | x12 | x12 | x12 | x12 | x12 | x12 | x12 | x12 | x12 | x12 | %46
[M:4/4][K:bass] x8 | x8 |[K:treble] x3/2[K:bass] x9/2[K:treble] x2 | x3/2[K:bass] x13/2 | %50
[K:treble] x3/2[K:bass] x13/2 |[K:treble] x3/2[K:bass] x5/2[K:treble] x[K:bass] x3 | %52
[K:treble] x3/2[K:bass] x9/2[K:treble] x2 | x3/2[K:bass] x13/2 | %54
[K:treble] x3/2[K:bass] x9/2[K:treble] x2 | x3/2[K:bass] x5/2[K:treble] x[K:bass] x3 | %56
[K:treble] x8 | x3/2[K:bass] x13/2 |[K:treble] x8 | x8 | x8 | x8 | x8 | x8 | x[K:bass] x7 | x8 | %66
 x8 | x8 | x8 | x8 |[K:treble] x3[K:bass] x3[K:treble] x2 | x[K:bass] x7 | %72
[K:treble] x3[K:bass] x3[K:treble] x2 | x[K:bass] x3[K:treble] x4 | x3[K:bass] x3[K:treble] x2 | %75
 x[K:bass] x7 |[K:treble] x3[K:bass] x3[K:treble] x2 | x[K:bass] x3[K:treble] x4 | x8 | x8 | %80
[M:3/4] x6 | x6 | x6 | x6 | x6 | x6 | x6 | x6 | x6 | x6 | x6 | x6 |[M:4/4] x3[K:bass] x5 | x8 | %94
[K:treble] x8 | x8 | x8 | x8 | x8 | x8 | x8 | x8 | x8 | x8 | x8 | x8 | x8 | x8 | x8 | x8 | x8 | %111
 x8 | x8 | x8 | x8 | x8 | x8 | x8 | x8 | x8 | x8 | x8 | x8 | x8 | x8 | x8 | x8 | x8 | x8 | x8 | %130
 x8 | x8 | x8 | x8 | x8 | x8 | x8 | x8 | x8 | x[K:bass] x2[K:treble] x5 | %140
 x[K:bass] x3[K:treble] x4 | x8 | x8 | x8 | x8 | x8 | x[K:bass] x6[K:treble] x | x8 | x8 | x8 | %150
 x8 | x8 | x8 |[K:bass] x8 | x8 | x8 | x4[K:treble] x4 | x8 | x8 | x8 | x8 | x8 | x8 | x8 | x8 | %165
 x8 | x8 | x8 | x8 | x4[K:bass] x4 |[K:treble] x8 | x8 | x8 | x4[K:bass] x4 |[K:treble] G,8 | x8 |] %176

